bernoullicharts/exp_-x_alt_series__mean.svg

<?xml version="1.0" encoding="utf-8" standalone="no"?>
<!DOCTYPE svg PUBLIC "-//W3C//DTD SVG 1.1//EN"
  "http://www.w3.org/Graphics/SVG/1.1/DTD/svg11.dtd">
<!-- Created with matplotlib (https://matplotlib.org/) -->
<svg height="345.6pt" version="1.1" viewBox="0 0 460.8 345.6" width="460.8pt" xmlns="http://www.w3.org/2000/svg" xmlns:xlink="http://www.w3.org/1999/xlink">
 <defs>
  <style type="text/css">
*{stroke-linecap:butt;stroke-linejoin:round;}
  </style>
 </defs>
 <g id="figure_1">
  <g id="patch_1">
   <path d="M 0 345.6 
L 460.8 345.6 
L 460.8 0 
L 0 0 
z
" style="fill:#ffffff;"/>
  </g>
  <g id="axes_1">
   <g id="patch_2">
    <path d="M 57.6 307.584 
L 414.72 307.584 
L 414.72 41.472 
L 57.6 41.472 
z
" style="fill:#ffffff;"/>
   </g>
   <g id="matplotlib.axis_1">
    <g id="xtick_1">
     <g id="line2d_1">
      <defs>
       <path d="M 0 0 
L 0 3.5 
" id="m060f93447c" style="stroke:#000000;stroke-width:0.8;"/>
      </defs>
      <g>
       <use style="stroke:#000000;stroke-width:0.8;" x="73.800255" xlink:href="#m060f93447c" y="307.584"/>
      </g>
     </g>
     <g id="text_1">
      <text style="font-family:DejaVu Sans;font-size:10px;font-style:normal;font-weight:normal;text-anchor:middle;" transform="rotate(-0, 73.800255, 322.182437)" x="73.800255" y="322.182437">0.0</text>
     </g>
    </g>
    <g id="xtick_2">
     <g id="line2d_2">
      <g>
       <use style="stroke:#000000;stroke-width:0.8;" x="138.744153" xlink:href="#m060f93447c" y="307.584"/>
      </g>
     </g>
     <g id="text_2">
      <text style="font-family:DejaVu Sans;font-size:10px;font-style:normal;font-weight:normal;text-anchor:middle;" transform="rotate(-0, 138.744153, 322.182437)" x="138.744153" y="322.182437">0.2</text>
     </g>
    </g>
    <g id="xtick_3">
     <g id="line2d_3">
      <g>
       <use style="stroke:#000000;stroke-width:0.8;" x="203.688051" xlink:href="#m060f93447c" y="307.584"/>
      </g>
     </g>
     <g id="text_3">
      <text style="font-family:DejaVu Sans;font-size:10px;font-style:normal;font-weight:normal;text-anchor:middle;" transform="rotate(-0, 203.688051, 322.182437)" x="203.688051" y="322.182437">0.4</text>
     </g>
    </g>
    <g id="xtick_4">
     <g id="line2d_4">
      <g>
       <use style="stroke:#000000;stroke-width:0.8;" x="268.631949" xlink:href="#m060f93447c" y="307.584"/>
      </g>
     </g>
     <g id="text_4">
      <text style="font-family:DejaVu Sans;font-size:10px;font-style:normal;font-weight:normal;text-anchor:middle;" transform="rotate(-0, 268.631949, 322.182437)" x="268.631949" y="322.182437">0.6</text>
     </g>
    </g>
    <g id="xtick_5">
     <g id="line2d_5">
      <g>
       <use style="stroke:#000000;stroke-width:0.8;" x="333.575847" xlink:href="#m060f93447c" y="307.584"/>
      </g>
     </g>
     <g id="text_5">
      <text style="font-family:DejaVu Sans;font-size:10px;font-style:normal;font-weight:normal;text-anchor:middle;" transform="rotate(-0, 333.575847, 322.182437)" x="333.575847" y="322.182437">0.8</text>
     </g>
    </g>
    <g id="xtick_6">
     <g id="line2d_6">
      <g>
       <use style="stroke:#000000;stroke-width:0.8;" x="398.519745" xlink:href="#m060f93447c" y="307.584"/>
      </g>
     </g>
     <g id="text_6">
      <text style="font-family:DejaVu Sans;font-size:10px;font-style:normal;font-weight:normal;text-anchor:middle;" transform="rotate(-0, 398.519745, 322.182437)" x="398.519745" y="322.182437">1.0</text>
     </g>
    </g>
    <g id="text_7">
     <text style="font-family:DejaVu Sans;font-size:10px;font-style:normal;font-weight:normal;text-anchor:middle;" transform="rotate(-0, 236.16, 335.860562)" x="236.16" y="335.860562">Input Coin's Heads Probability (λ)</text>
    </g>
   </g>
   <g id="matplotlib.axis_2">
    <g id="ytick_1">
     <g id="line2d_7">
      <defs>
       <path d="M 0 0 
L -3.5 0 
" id="me1adbc96f9" style="stroke:#000000;stroke-width:0.8;"/>
      </defs>
      <g>
       <use style="stroke:#000000;stroke-width:0.8;" x="57.6" xlink:href="#me1adbc96f9" y="278.959304"/>
      </g>
     </g>
     <g id="text_8">
      <text style="font-family:DejaVu Sans;font-size:10px;font-style:normal;font-weight:normal;text-anchor:end;" transform="rotate(-0, 50.6, 282.758523)" x="50.6" y="282.758523">0.4</text>
     </g>
    </g>
    <g id="ytick_2">
     <g id="line2d_8">
      <g>
       <use style="stroke:#000000;stroke-width:0.8;" x="57.6" xlink:href="#me1adbc96f9" y="241.394087"/>
      </g>
     </g>
     <g id="text_9">
      <text style="font-family:DejaVu Sans;font-size:10px;font-style:normal;font-weight:normal;text-anchor:end;" transform="rotate(-0, 50.6, 245.193306)" x="50.6" y="245.193306">0.5</text>
     </g>
    </g>
    <g id="ytick_3">
     <g id="line2d_9">
      <g>
       <use style="stroke:#000000;stroke-width:0.8;" x="57.6" xlink:href="#me1adbc96f9" y="203.82887"/>
      </g>
     </g>
     <g id="text_10">
      <text style="font-family:DejaVu Sans;font-size:10px;font-style:normal;font-weight:normal;text-anchor:end;" transform="rotate(-0, 50.6, 207.628088)" x="50.6" y="207.628088">0.6</text>
     </g>
    </g>
    <g id="ytick_4">
     <g id="line2d_10">
      <g>
       <use style="stroke:#000000;stroke-width:0.8;" x="57.6" xlink:href="#me1adbc96f9" y="166.263652"/>
      </g>
     </g>
     <g id="text_11">
      <text style="font-family:DejaVu Sans;font-size:10px;font-style:normal;font-weight:normal;text-anchor:end;" transform="rotate(-0, 50.6, 170.062871)" x="50.6" y="170.062871">0.7</text>
     </g>
    </g>
    <g id="ytick_5">
     <g id="line2d_11">
      <g>
       <use style="stroke:#000000;stroke-width:0.8;" x="57.6" xlink:href="#me1adbc96f9" y="128.698435"/>
      </g>
     </g>
     <g id="text_12">
      <text style="font-family:DejaVu Sans;font-size:10px;font-style:normal;font-weight:normal;text-anchor:end;" transform="rotate(-0, 50.6, 132.497654)" x="50.6" y="132.497654">0.8</text>
     </g>
    </g>
    <g id="ytick_6">
     <g id="line2d_12">
      <g>
       <use style="stroke:#000000;stroke-width:0.8;" x="57.6" xlink:href="#me1adbc96f9" y="91.133217"/>
      </g>
     </g>
     <g id="text_13">
      <text style="font-family:DejaVu Sans;font-size:10px;font-style:normal;font-weight:normal;text-anchor:end;" transform="rotate(-0, 50.6, 94.932436)" x="50.6" y="94.932436">0.9</text>
     </g>
    </g>
    <g id="ytick_7">
     <g id="line2d_13">
      <g>
       <use style="stroke:#000000;stroke-width:0.8;" x="57.6" xlink:href="#me1adbc96f9" y="53.568"/>
      </g>
     </g>
     <g id="text_14">
      <text style="font-family:DejaVu Sans;font-size:10px;font-style:normal;font-weight:normal;text-anchor:end;" transform="rotate(-0, 50.6, 57.367219)" x="50.6" y="57.367219">1.0</text>
     </g>
    </g>
    <g id="text_15">
     <text style="font-family:DejaVu Sans;font-size:10px;font-style:normal;font-weight:normal;text-anchor:middle;" transform="rotate(-90, 28.617187, 174.528)" x="28.617187" y="174.528">Simulated Mean / Function Value</text>
    </g>
   </g>
   <g id="line2d_14">
    <path clip-path="url(#p2239bb3ff2)" d="M 73.832727 53.605563 
L 77.112066 57.379801 
L 80.391405 61.116115 
L 83.670744 64.814886 
L 86.950083 68.476491 
L 90.229421 72.101304 
L 93.50876 75.689693 
L 96.788099 79.242026 
L 100.067438 82.758665 
L 103.346777 86.239968 
L 106.626116 89.68629 
L 109.905455 93.097983 
L 113.184793 96.475395 
L 116.464132 99.81887 
L 119.743471 103.128749 
L 123.02281 106.40537 
L 126.302149 109.649066 
L 129.581488 112.86017 
L 132.860826 116.039008 
L 136.140165 119.185905 
L 139.419504 122.30118 
L 142.698843 125.385154 
L 145.978182 128.438138 
L 149.257521 131.460446 
L 152.53686 134.452386 
L 155.816198 137.414261 
L 159.095537 140.346376 
L 162.374876 143.249028 
L 165.654215 146.122513 
L 168.933554 148.967126 
L 172.212893 151.783155 
L 175.492231 154.570888 
L 178.77157 157.33061 
L 182.050909 160.062601 
L 185.330248 162.767142 
L 188.609587 165.444506 
L 191.888926 168.094968 
L 195.168264 170.718797 
L 198.447603 173.316262 
L 201.726942 175.887627 
L 205.006281 178.433155 
L 208.28562 180.953104 
L 211.564959 183.447733 
L 214.844298 185.917296 
L 218.123636 188.362043 
L 221.402975 190.782226 
L 224.682314 193.17809 
L 227.961653 195.54988 
L 231.240992 197.897838 
L 234.520331 200.222203 
L 237.799669 202.523213 
L 241.079008 204.801102 
L 244.358347 207.056102 
L 247.637686 209.288444 
L 250.917025 211.498354 
L 254.196364 213.686059 
L 257.475702 215.851782 
L 260.755041 217.995743 
L 264.03438 220.118161 
L 267.313719 222.219253 
L 270.593058 224.299233 
L 273.872397 226.358312 
L 277.151736 228.396702 
L 280.431074 230.41461 
L 283.710413 232.412241 
L 286.989752 234.3898 
L 290.269091 236.347488 
L 293.54843 238.285505 
L 296.827769 240.204048 
L 300.107107 242.103314 
L 303.386446 243.983495 
L 306.665785 245.844784 
L 309.945124 247.68737 
L 313.224463 249.511442 
L 316.503802 251.317185 
L 319.78314 253.104784 
L 323.062479 254.874421 
L 326.341818 256.626276 
L 329.621157 258.360528 
L 332.900496 260.077354 
L 336.179835 261.77693 
L 339.459174 263.459427 
L 342.738512 265.125019 
L 346.017851 266.773874 
L 349.29719 268.406162 
L 352.576529 270.022048 
L 355.855868 271.621697 
L 359.135207 273.205272 
L 362.414545 274.772936 
L 365.693884 276.324848 
L 368.973223 277.861165 
L 372.252562 279.382046 
L 375.531901 280.887644 
L 378.81124 282.378114 
L 382.090579 283.853608 
L 385.369917 285.314275 
L 388.649256 286.760266 
L 391.928595 288.191726 
L 395.207934 289.608804 
L 398.487273 291.011642 
" style="fill:none;stroke:#1f77b4;stroke-linecap:square;stroke-width:1.5;"/>
   </g>
   <g id="line2d_15">
    <path clip-path="url(#p2239bb3ff2)" d="M 73.832727 53.568 
L 77.112066 57.324522 
L 80.391405 62.583652 
L 83.670744 60.329739 
L 86.950083 68.594087 
L 90.229421 70.848 
L 93.50876 73.101913 
L 96.788099 78.361043 
L 100.067438 79.112348 
L 103.346777 91.133217 
L 106.626116 90.381913 
L 109.905455 90.381913 
L 113.184793 93.38713 
L 116.464132 87.376696 
L 119.743471 110.66713 
L 123.02281 106.910609 
L 126.302149 110.66713 
L 129.581488 115.926261 
L 132.860826 107.661913 
L 136.140165 117.42887 
L 139.419504 120.434087 
L 142.698843 136.211478 
L 145.978182 127.94713 
L 149.257521 127.94713 
L 152.53686 131.703652 
L 155.816198 137.714087 
L 159.095537 147.481043 
L 162.374876 157.248 
L 165.654215 151.98887 
L 168.933554 140.719304 
L 172.212893 154.994087 
L 175.492231 151.237565 
L 178.77157 161.004522 
L 182.050909 160.253217 
L 185.330248 170.020174 
L 188.609587 149.734957 
L 191.888926 181.289739 
L 195.168264 167.766261 
L 198.447603 170.771478 
L 201.726942 160.253217 
L 205.006281 186.54887 
L 208.28562 188.051478 
L 211.564959 191.056696 
L 214.844298 185.797565 
L 218.123636 195.564522 
L 221.402975 200.072348 
L 224.682314 203.077565 
L 227.961653 186.54887 
L 231.240992 187.300174 
L 234.520331 213.595826 
L 237.799669 196.315826 
L 241.079008 197.06713 
L 244.358347 209.839304 
L 247.637686 188.051478 
L 250.917025 209.088 
L 254.196364 219.606261 
L 257.475702 210.590609 
L 260.755041 223.362783 
L 264.03438 217.352348 
L 267.313719 232.378435 
L 270.593058 220.357565 
L 273.872397 208.336696 
L 277.151736 236.134957 
L 280.431074 224.114087 
L 283.710413 232.378435 
L 286.989752 244.399304 
L 290.269091 239.891478 
L 293.54843 240.642783 
L 296.827769 236.134957 
L 300.107107 235.383652 
L 303.386446 245.150609 
L 306.665785 236.134957 
L 309.945124 248.90713 
L 313.224463 251.161043 
L 316.503802 249.658435 
L 319.78314 260.928 
L 323.062479 250.409739 
L 326.341818 243.648 
L 329.621157 252.663652 
L 332.900496 260.928 
L 336.179835 253.414957 
L 339.459174 260.928 
L 342.738512 281.213217 
L 346.017851 242.896696 
L 349.29719 269.192348 
L 352.576529 259.425391 
L 355.855868 278.959304 
L 359.135207 270.694957 
L 362.414545 286.472348 
L 365.693884 286.472348 
L 368.973223 277.456696 
L 372.252562 287.974957 
L 375.531901 291.731478 
L 378.81124 273.700174 
L 382.090579 257.922783 
L 385.369917 289.477565 
L 388.649256 278.959304 
L 391.928595 275.202783 
L 395.207934 295.488 
L 398.487273 289.477565 
" style="fill:none;stroke:#ff7f0e;stroke-linecap:square;stroke-width:1.5;"/>
   </g>
   <g id="patch_3">
    <path d="M 57.6 307.584 
L 57.6 41.472 
" style="fill:none;stroke:#000000;stroke-linecap:square;stroke-linejoin:miter;stroke-width:0.8;"/>
   </g>
   <g id="patch_4">
    <path d="M 414.72 307.584 
L 414.72 41.472 
" style="fill:none;stroke:#000000;stroke-linecap:square;stroke-linejoin:miter;stroke-width:0.8;"/>
   </g>
   <g id="patch_5">
    <path d="M 57.6 307.584 
L 414.72 307.584 
" style="fill:none;stroke:#000000;stroke-linecap:square;stroke-linejoin:miter;stroke-width:0.8;"/>
   </g>
   <g id="patch_6">
    <path d="M 57.6 41.472 
L 414.72 41.472 
" style="fill:none;stroke:#000000;stroke-linecap:square;stroke-linejoin:miter;stroke-width:0.8;"/>
   </g>
   <g id="text_16">
    <text style="font-family:DejaVu Sans;font-size:12px;font-style:normal;font-weight:normal;" transform="translate(85.907813 22.034625)">Simulated Mean for exp(-x) (Alt. Series) Algorithm</text>
    <text style="font-family:DejaVu Sans;font-size:12px;font-style:normal;font-weight:normal;" transform="translate(132.609375 35.472)">(Wasserstein Distances in Legend)</text>
   </g>
   <g id="legend_1">
    <g id="patch_7">
     <path d="M 229.47 78.82825 
L 407.72 78.82825 
Q 409.72 78.82825 409.72 76.82825 
L 409.72 48.472 
Q 409.72 46.472 407.72 46.472 
L 229.47 46.472 
Q 227.47 46.472 227.47 48.472 
L 227.47 76.82825 
Q 227.47 78.82825 229.47 78.82825 
z
" style="fill:#ffffff;opacity:0.8;stroke:#cccccc;stroke-linejoin:miter;"/>
    </g>
    <g id="line2d_16">
     <path d="M 231.47 54.570437 
L 251.47 54.570437 
" style="fill:none;stroke:#1f77b4;stroke-linecap:square;stroke-width:1.5;"/>
    </g>
    <g id="line2d_17"/>
    <g id="text_17">
     <text style="font-family:DejaVu Sans;font-size:10px;font-style:normal;font-weight:normal;text-anchor:start;" transform="rotate(-0, 259.47, 58.070437)" x="259.47" y="58.070437">exp(-x)</text>
    </g>
    <g id="line2d_18">
     <path d="M 231.47 69.248562 
L 251.47 69.248562 
" style="fill:none;stroke:#ff7f0e;stroke-linecap:square;stroke-width:1.5;"/>
    </g>
    <g id="line2d_19"/>
    <g id="text_18">
     <text style="font-family:DejaVu Sans;font-size:10px;font-style:normal;font-weight:normal;text-anchor:start;" transform="rotate(-0, 259.47, 72.748562)" x="259.47" y="72.748562">Simul. Mean (WD=0.005956)</text>
    </g>
   </g>
  </g>
 </g>
 <defs>
  <clipPath id="p2239bb3ff2">
   <rect height="266.112" width="357.12" x="57.6" y="41.472"/>
  </clipPath>
 </defs>
</svg>

<svg height="460.8" viewBox="0 0 460.8 345.6" width="614.4" xmlns="http://www.w3.org/2000/svg" xmlns:xlink="http://www.w3.org/1999/xlink"><defs><style>*{stroke-linecap:butt;stroke-linejoin:round}</style></defs><g id="figure_1"><path d="M0 345.6h460.8V0H0z" fill="#fff" id="patch_1"/><g id="axes_1"><path d="M57.6 307.584h357.12V41.472H57.6z" fill="#fff" id="patch_2"/><g id="matplotlib.axis_1"><g id="xtick_1"><g id="line2d_1"><defs><path d="M0 0v3.5" id="m060f93447c" stroke="#000" stroke-width=".8"/></defs><use x="73.8" xlink:href="#m060f93447c" y="307.584" stroke="#000" stroke-width=".8"/></g><text x="73.8" y="322.182" font-family="DejaVu Sans" font-size="10" font-weight="400" text-anchor="middle" id="text_1">0.0</text></g><g id="xtick_2"><use x="138.744" xlink:href="#m060f93447c" y="307.584" stroke="#000" stroke-width=".8" id="line2d_2"/><text x="138.744" y="322.182" font-family="DejaVu Sans" font-size="10" font-weight="400" text-anchor="middle" id="text_2">0.2</text></g><g id="xtick_3"><use x="203.688" xlink:href="#m060f93447c" y="307.584" stroke="#000" stroke-width=".8" id="line2d_3"/><text x="203.688" y="322.182" font-family="DejaVu Sans" font-size="10" font-weight="400" text-anchor="middle" id="text_3">0.4</text></g><g id="xtick_4"><use x="268.632" xlink:href="#m060f93447c" y="307.584" stroke="#000" stroke-width=".8" id="line2d_4"/><text x="268.632" y="322.182" font-family="DejaVu Sans" font-size="10" font-weight="400" text-anchor="middle" id="text_4">0.6</text></g><g id="xtick_5"><use x="333.576" xlink:href="#m060f93447c" y="307.584" stroke="#000" stroke-width=".8" id="line2d_5"/><text x="333.576" y="322.182" font-family="DejaVu Sans" font-size="10" font-weight="400" text-anchor="middle" id="text_5">0.8</text></g><g id="xtick_6"><use x="398.52" xlink:href="#m060f93447c" y="307.584" stroke="#000" stroke-width=".8" id="line2d_6"/><text x="398.52" y="322.182" font-family="DejaVu Sans" font-size="10" font-weight="400" text-anchor="middle" id="text_6">1.0</text></g><text x="236.16" y="335.861" font-family="DejaVu Sans" font-size="10" font-weight="400" text-anchor="middle" id="text_7">Input Coin&apos;s Heads Probability (λ)</text></g><g id="matplotlib.axis_2"><g id="ytick_1"><g id="line2d_7"><defs><path d="M0 0h-3.5" id="me1adbc96f9" stroke="#000" stroke-width=".8"/></defs><use x="57.6" xlink:href="#me1adbc96f9" y="278.959" stroke="#000" stroke-width=".8"/></g><text x="50.6" y="282.759" font-family="DejaVu Sans" font-size="10" font-weight="400" text-anchor="end" id="text_8">0.4</text></g><g id="ytick_2"><use x="57.6" xlink:href="#me1adbc96f9" y="241.394" stroke="#000" stroke-width=".8" id="line2d_8"/><text x="50.6" y="245.193" font-family="DejaVu Sans" font-size="10" font-weight="400" text-anchor="end" id="text_9">0.5</text></g><g id="ytick_3"><use x="57.6" xlink:href="#me1adbc96f9" y="203.829" stroke="#000" stroke-width=".8" id="line2d_9"/><text x="50.6" y="207.628" font-family="DejaVu Sans" font-size="10" font-weight="400" text-anchor="end" id="text_10">0.6</text></g><g id="ytick_4"><use x="57.6" xlink:href="#me1adbc96f9" y="166.264" stroke="#000" stroke-width=".8" id="line2d_10"/><text x="50.6" y="170.063" font-family="DejaVu Sans" font-size="10" font-weight="400" text-anchor="end" id="text_11">0.7</text></g><g id="ytick_5"><use x="57.6" xlink:href="#me1adbc96f9" y="128.698" stroke="#000" stroke-width=".8" id="line2d_11"/><text x="50.6" y="132.498" font-family="DejaVu Sans" font-size="10" font-weight="400" text-anchor="end" id="text_12">0.8</text></g><g id="ytick_6"><use x="57.6" xlink:href="#me1adbc96f9" y="91.133" stroke="#000" stroke-width=".8" id="line2d_12"/><text x="50.6" y="94.932" font-family="DejaVu Sans" font-size="10" font-weight="400" text-anchor="end" id="text_13">0.9</text></g><g id="ytick_7"><use x="57.6" xlink:href="#me1adbc96f9" y="53.568" stroke="#000" stroke-width=".8" id="line2d_13"/><text x="50.6" y="57.367" font-family="DejaVu Sans" font-size="10" font-weight="400" text-anchor="end" id="text_14">1.0</text></g><text transform="rotate(-90 28.617 174.528)" x="28.617" y="174.528" font-family="DejaVu Sans" font-size="10" font-weight="400" text-anchor="middle" id="text_15">Simulated Mean / Function Value</text></g><path clip-path="url(#p2239bb3ff2)" d="M73.833 53.606l3.28 3.774 3.278 3.736 3.28 3.699 3.28 3.661 3.278 3.625 3.28 3.589 3.28 3.552 3.278 3.517 3.28 3.481 3.28 3.446 3.278 3.412 3.28 3.377 3.28 3.344 3.278 3.31 3.28 3.276 3.28 3.244 3.278 3.211 3.28 3.179 3.28 3.147 3.279 3.115 3.279 3.084 3.28 3.053 3.279 3.022 3.279 2.992 3.28 2.962 3.279 2.932 3.279 2.903 3.28 2.874 3.279 2.844 3.279 2.816 3.28 2.788 3.279 2.76 3.279 2.732 3.28 2.704 3.279 2.678 3.279 2.65 3.28 2.624 3.279 2.597 3.279 2.572 3.28 2.545 3.279 2.52 3.279 2.495 3.28 2.47 3.279 2.444 3.279 2.42 3.28 2.396 3.279 2.372 3.279 2.348 3.28 2.324 3.279 2.301 3.279 2.278 3.28 2.255 3.279 2.232 3.279 2.21 3.28 2.188 3.279 2.166 3.279 2.144 3.28 2.122 3.279 2.101 3.28 2.08 3.278 2.06 3.28 2.038 3.28 2.018 3.278 1.997 3.28 1.978 3.28 1.957 3.278 1.939 3.28 1.918 3.28 1.9 3.278 1.88 3.28 1.86 3.28 1.843 3.278 1.824 3.28 1.806 3.28 1.788 3.278 1.77 3.28 1.751 3.28 1.735 3.278 1.716 3.28 1.7 3.28 1.682 3.279 1.666 3.279 1.649 3.28 1.632 3.279 1.616 3.279 1.6 3.28 1.583 3.279 1.568 3.279 1.552 3.28 1.536 3.279 1.521 3.279 1.506 3.28 1.49 3.279 1.476 3.279 1.46 3.28 1.446 3.279 1.432 3.279 1.417 3.28 1.403" fill="none" stroke="#1f77b4" stroke-linecap="square" stroke-width="1.5" id="line2d_14"/><path clip-path="url(#p2239bb3ff2)" d="M73.833 53.568l3.28 3.757 3.278 5.259 3.28-2.254 3.28 8.264 3.278 2.254 3.28 2.254 3.28 5.259 3.278.751 3.28 12.021 3.28-.751h3.278l3.28 3.005 3.28-6.01 3.278 23.29 3.28-3.756 3.28 3.756 3.278 5.26 3.28-8.265 3.28 9.767 3.279 3.005 3.279 15.777 3.28-8.264h3.279l3.279 3.757 3.28 6.01 3.279 9.767 3.279 9.767 3.28-5.26 3.279-11.269 3.279 14.275 3.28-3.756 3.279 9.767 3.279-.752 3.28 9.767 3.279-20.285 3.279 31.555 3.28-13.524 3.279 3.005 3.279-10.518 3.28 26.296 3.279 1.502 3.279 3.006 3.28-5.26 3.279 9.768 3.279 4.507 3.28 3.006 3.279-16.53 3.279.752 3.28 26.296 3.279-17.28 3.279.751 3.28 12.772 3.279-21.788 3.279 21.037 3.28 10.518 3.279-9.015 3.279 12.772 3.28-6.01 3.279 15.025 3.28-12.02 3.278-12.021 3.28 27.798 3.28-12.02 3.278 8.263 3.28 12.021 3.28-4.508 3.278.752 3.28-4.508 3.28-.751 3.278 9.767 3.28-9.016 3.28 12.772 3.278 2.254 3.28-1.503 3.28 11.27 3.278-10.518 3.28-6.762 3.28 9.016 3.278 8.264 3.28-7.513 3.28 7.513 3.279 20.285 3.279-38.316 3.28 26.295 3.279-9.767 3.279 19.534 3.28-8.264 3.279 15.777h3.279l3.28-9.015 3.279 10.518 3.279 3.756 3.28-18.03 3.279-15.778 3.279 31.555 3.28-10.519 3.279-3.756 3.279 20.285 3.28-6.01" fill="none" stroke="#ff7f0e" stroke-linecap="square" stroke-width="1.5" id="line2d_15"/><path d="M57.6 307.584V41.472" fill="none" stroke="#000" stroke-linecap="square" stroke-width=".8" id="patch_3"/><path d="M414.72 307.584V41.472" fill="none" stroke="#000" stroke-linecap="square" stroke-width=".8" id="patch_4"/><path d="M57.6 307.584h357.12" fill="none" stroke="#000" stroke-linecap="square" stroke-width=".8" id="patch_5"/><path d="M57.6 41.472h357.12" fill="none" stroke="#000" stroke-linecap="square" stroke-width=".8" id="patch_6"/><g id="text_16" font-family="DejaVu Sans" font-size="12" font-weight="400"><text transform="translate(85.908 22.035)">Simulated Mean for exp(-x) (Alt. Series) Algorithm</text><text transform="translate(132.61 35.472)">(Wasserstein Distances in Legend)</text></g><g id="legend_1"><path d="M229.47 78.828h178.25q2 0 2-2V48.472q0-2-2-2H229.47q-2 0-2 2v28.356q0 2 2 2z" fill="#fff" opacity=".8" stroke="#ccc" id="patch_7"/><path d="M231.47 54.57h20" fill="none" stroke="#1f77b4" stroke-linecap="square" stroke-width="1.5" id="line2d_16"/><text x="259.47" y="58.07" font-family="DejaVu Sans" font-size="10" font-weight="400" id="text_17">exp(-x)</text><path d="M231.47 69.249h20" fill="none" stroke="#ff7f0e" stroke-linecap="square" stroke-width="1.5" id="line2d_18"/><text x="259.47" y="72.749" font-family="DejaVu Sans" font-size="10" font-weight="400" id="text_18">Simul. Mean (WD=0.005956)</text></g></g></g><defs><clipPath id="p2239bb3ff2"><path d="M57.6 41.472h357.12v266.112H57.6z"/></clipPath></defs></svg>
